X:13
T:Tam Lin
M:C|
R:reel
C:Davey Arthur
K:Dmin
A,D/D/DD A,DFD | B,D/D/DD FDFD | CE (3EEE GE (3EEE | (EF)FE FEDC |
A,D/D/DD A,DFD | B,D/D/DD FDFD | CE (3EEE GE (3EEE |[1 FEDC D2 DC :|[2 FEDC DFA^c |
|: (^cd)dA FD (3(DED) | (^cd)dA FD (3(DED) | (3ccc Gc (3ccc Gc | (3ccc Gc cdec |
(^cd)dA FD (3(DED) | (^cd)dA FD (3(DED) | B,D (3DDD CE (3EEE |[1 FEDC DFA^c :|[2 FEDC D2 |]

